X: 13134
T: First Friday, The
R: hornpipe
M: 4/4
K: Dmajor
D>FA>F G>Be>d|c>Ac>e g>ec>e|d>ef>d g>fg>f|(3efe (3dcB (3ABA (3GFE|
D>FA>F G>Be>d|c>Ac>e g>ec>A|B>ge>d c>AB>c|1 d>fe>c d2 (3GFE:|2 d2f2d2 (3efg||
a>fd>B A>BF>B|A>Bd>e f>df>a|g>ef>d e>dc>d|(3efe (3dcB A2f>g|
a>fd>B A>BF>B|A>Bd>e f3 f|g>ef>d e>dc>d|(3efe dc d2 (3efg|
a>fd>B A>BF>B|A>Bd>e f>de>f|g>ef>d e>dc>d|(3efe (3dcB (3ABA (3GFE|
D>FA>F G>Be>d|c>Ac>e g>ec>A|B>ge>d c>AB>c|(3dcd f>e d4||

